src/assets/filled/Barcode.svg

<?xml version="1.0" encoding="UTF-8"?>
<svg width="24" height="24" viewBox="0 0 24 24" xmlns="http://www.w3.org/2000/svg">
 <path d="m17 3.5h-10c-3 0-5 1.5-5 5v7c0 3.5 2 5 5 5h10c3 0 5-1.5 5-5v-7c0-3.5-2-5-5-5zm-10.25 12.5c0 0.41-0.34 0.75-0.75 0.75s-0.75-0.34-0.75-0.75v-8c0-0.41 0.34-0.75 0.75-0.75s0.75 0.34 0.75 0.75v8zm3 0c0 0.41-0.34 0.75-0.75 0.75s-0.75-0.34-0.75-0.75v-1c0-0.41 0.34-0.75 0.75-0.75s0.75 0.34 0.75 0.75v1zm0-4c0 0.41-0.34 0.75-0.75 0.75s-0.75-0.34-0.75-0.75v-4c0-0.41 0.34-0.75 0.75-0.75s0.75 0.34 0.75 0.75v4zm3 4c0 0.41-0.34 0.75-0.75 0.75s-0.75-0.34-0.75-0.75v-8c0-0.41 0.34-0.75 0.75-0.75s0.75 0.34 0.75 0.75v8zm3 0c0 0.41-0.34 0.75-0.75 0.75s-0.75-0.34-0.75-0.75v-4c0-0.41 0.34-0.75 0.75-0.75s0.75 0.34 0.75 0.75v4zm0-7c0 0.41-0.34 0.75-0.75 0.75s-0.75-0.34-0.75-0.75v-1c0-0.41 0.34-0.75 0.75-0.75s0.75 0.34 0.75 0.75v1zm3 7c0 0.41-0.34 0.75-0.75 0.75s-0.75-0.34-0.75-0.75v-8c0-0.41 0.34-0.75 0.75-0.75s0.75 0.34 0.75 0.75v8z"/>
</svg>

<svg width="24" height="24" viewBox="0 0 24 24"  xmlns="http://www.w3.org/2000/svg">
<path d="M17 3.5H7C4 3.5 2 5 2 8.5V15.5C2 19 4 20.5 7 20.5H17C20 20.5 22 19 22 15.5V8.5C22 5 20 3.5 17 3.5ZM6.75 16C6.75 16.41 6.41 16.75 6 16.75C5.59 16.75 5.25 16.41 5.25 16V8C5.25 7.59 5.59 7.25 6 7.25C6.41 7.25 6.75 7.59 6.75 8V16ZM9.75 16C9.75 16.41 9.41 16.75 9 16.75C8.59 16.75 8.25 16.41 8.25 16V15C8.25 14.59 8.59 14.25 9 14.25C9.41 14.25 9.75 14.59 9.75 15V16ZM9.75 12C9.75 12.41 9.41 12.75 9 12.75C8.59 12.75 8.25 12.41 8.25 12V8C8.25 7.59 8.59 7.25 9 7.25C9.41 7.25 9.75 7.59 9.75 8V12ZM12.75 16C12.75 16.41 12.41 16.75 12 16.75C11.59 16.75 11.25 16.41 11.25 16V8C11.25 7.59 11.59 7.25 12 7.25C12.41 7.25 12.75 7.59 12.75 8V16ZM15.75 16C15.75 16.41 15.41 16.75 15 16.75C14.59 16.75 14.25 16.41 14.25 16V12C14.25 11.59 14.59 11.25 15 11.25C15.41 11.25 15.75 11.59 15.75 12V16ZM15.75 9C15.75 9.41 15.41 9.75 15 9.75C14.59 9.75 14.25 9.41 14.25 9V8C14.25 7.59 14.59 7.25 15 7.25C15.41 7.25 15.75 7.59 15.75 8V9ZM18.75 16C18.75 16.41 18.41 16.75 18 16.75C17.59 16.75 17.25 16.41 17.25 16V8C17.25 7.59 17.59 7.25 18 7.25C18.41 7.25 18.75 7.59 18.75 8V16Z" />
</svg>
